X:135
T:Little Toesy
T:B part transposed octave higher
M:C
K:G
"D"fgeg f2d2 | B2d2 "Em" e3 d | "G"BdAd B2G2 | "D"A4 D4|
"D"fgeg f2d2 | B2d2 "Em" e3 d | "G"BAGB A2 G2 | "D"DEGA "G" G3 z:|
|: "C" cedc "D" A2    G2 | "G" GABc B3 G|  "C" cedc "D" A2    G2 | "D" (3efe d2     (3ded B2|
"C" cedc "D" A2 "G"G2 | "G" GABc B3 G| "D7"GBdf a2f2 | "G" g3 g g2 z2 :|
